X: 0891
M: 4/4
L: 1/16
K: G
|:\
e4g3e d4g3e | d3cB3A B4G4 | BcBc d2d2 e2d2c2B2 | A4d3d d4z4 |
|:\
dedc BcBA G4G4 | d2=f2e2d2 e8 | efed cdcB A4A4 | e2g2f2e2 f6ef |\
g4d3d d4g3e | d4B3B B4d4 | g2g2f2e2 d2c2B2A2 G4G3G G8 :|

